X:9998
T:Ma Normandie
T:Quand tout renat  l'esprance
R:Valse
C:Frdric Brat (1885) Traditionnel
A:Normandie
O:France
M:3/4
L:1/8
Q:1/4=76
K:G
D| D> G G> B B> e| d2 d zz D|c> B A3 d|B> A Gz D|!
D> G  G> B B> e|d2 d zz D|c> B A3 d|B> A Gz D|!
cd c3 D|Bc B2-B D|A B A3 D|G A G2zD|D G G B B e|!
d2-d/2 z/2 d c> B| B A E ^F E> D|"h"G4  z||
